!!!SOCIAL_FUNCTION:	songs with hunting dance
!!!PDT:	1956
!!!OTL: No_29_Cypress_Swamp_Hunting_Dance_Song_(d).krn
!!!LANG: Non-Tone
!!!LING_GROUP: Muskogean
!!!REG: Florida
**kern
*staff1
=1-
*clefF4
*k[b-]
*M2/4
8A\L
8A\J
4A\
=2
8A\L
8G\J
8F/L
8C/J
=3
8A\L
8A\J
8A\L
8G\J
=4
8F/L
8C/J
4C/
=5
8G\L
8G\J
8G\L
8F\J
=6
8F/L
8C/J
4C/
=7
8F/L
8C/J
4C/
=8
4C/
12AA/L
12AA/
12AA/J
=9
8C/L
8C/J
4C/
=10
8G\L
8G\J
8G\L
8F\J
=11
8F/L
8C/J
4C/
=12
8F/L
8C/J
4C/
=13
8F/L
8C/J
4C/
=14
8r
8AA/
12AA/L
12AA/
12AA/J
=15
8F/L
8C/J
4C/
=16
8r
8AA/
12AA/L
12AA/
12AA/J
=17
8F/L
8C/J
4C/
==
*-
